src/icons/classification-beauty.icon.svg

<svg width="24px" height="24px" viewBox="0 0 24 24" version="1.1" xmlns="http://www.w3.org/2000/svg" xmlns:xlink="http://www.w3.org/1999/xlink">
    <path d="M12,22 C17.5228475,22 22,17.5228475 22,12 C22,6.4771525 17.5228475,2 12,2 C6.4771525,2 2,6.4771525 2,12 C2,17.5228475 6.4771525,22 12,22 Z" id="bg_icon" fill="#FF4D8D"></path>
    <path d="M12.5851089,9.18552971 C12.5621664,9.18828752 12.5388215,9.18970584 12.5151515,9.18970584 C12.1888014,9.18970584 11.9242424,8.92008909 11.9242424,8.58749998 C11.9242424,8.25491087 12.1888014,7.98529412 12.5151515,7.98529412 C12.5388215,7.98529412 12.5621664,7.98671244 12.5851089,7.98947024 L12.5851089,7.15149809 L11.1068182,7.15149809 L11.1068182,9.97058824 L12.5851089,9.97058824 L12.5851089,9.18552971 Z M9.95454545,9.97058824 L9.95454545,6.57574904 C9.95454545,6.25777163 10.2124905,6 10.5306818,6 L13.1612453,6 C13.4794366,6 13.7373816,6.25777163 13.7373816,6.57574904 L13.7373816,9.97058824 L15.7233358,9.97058824 C16.428418,9.97058824 17,10.5480437 17,11.2606521 L17,16.7099361 C17,17.4224187 16.4337046,18 15.7233358,18 L8.27666419,18 C7.57158203,18 7,17.4225445 7,16.7099361 L7,11.2606521 C7,10.5481695 7.56629539,9.97058824 8.27666419,9.97058824 L9.95454545,9.97058824 Z M8.15227273,11.2606521 L8.15227273,16.7099361 C8.15227273,16.7817247 8.20856394,16.8386029 8.27666419,16.8386029 L15.7233358,16.8386029 C15.7940943,16.8386029 15.8477273,16.7842516 15.8477273,16.7099361 L15.8477273,11.2606521 C15.8477273,11.1888635 15.7914361,11.1319853 15.7233358,11.1319853 L8.27666419,11.1319853 C8.20590569,11.1319853 8.15227273,11.1863366 8.15227273,11.2606521 Z M9.54583333,13.1172794 C9.22764201,13.1172794 8.96969697,12.8572918 8.96969697,12.5365809 C8.96969697,12.2158699 9.22764201,11.9558824 9.54583333,11.9558824 L14.0912879,11.9558824 C14.4094792,11.9558824 14.6674242,12.2158699 14.6674242,12.5365809 C14.6674242,12.8572918 14.4094792,13.1172794 14.0912879,13.1172794 L9.54583333,13.1172794 Z M10.5306818,15.1025735 C10.2124905,15.1025735 9.95454545,14.8425859 9.95454545,14.521875 C9.95454545,14.2011641 10.2124905,13.9411765 10.5306818,13.9411765 L13.2579545,13.9411765 C13.5761459,13.9411765 13.8340909,14.2011641 13.8340909,14.521875 C13.8340909,14.8425859 13.5761459,15.1025735 13.2579545,15.1025735 L10.5306818,15.1025735 Z" id="Combined-Shape" fill="#FFFFFF"></path>
</svg>

<svg xmlns="http://www.w3.org/2000/svg" viewBox="0 0 24 24"><path d="M12 22c5.523 0 10-4.477 10-10S17.523 2 12 2 2 6.477 2 12s4.477 10 10 10z" fill="#FF4D8D"/><path d="M12.585 9.186a.597.597 0 01-.66-.598.597.597 0 01.66-.599v-.838h-1.478v2.82h1.478v-.785zm-2.63.785V6.576c0-.318.257-.576.576-.576h2.63c.318 0 .576.258.576.576V9.97h1.986c.705 0 1.277.577 1.277 1.29v5.449A1.28 1.28 0 0115.723 18H8.277A1.283 1.283 0 017 16.71v-5.45c0-.712.566-1.29 1.277-1.29h1.678zm-1.803 1.29v5.449c0 .072.057.129.125.129h7.446c.071 0 .125-.055.125-.13v-5.448a.127.127 0 00-.125-.129H8.277a.123.123 0 00-.125.129zm1.394 1.856a.578.578 0 01-.576-.58c0-.321.258-.581.576-.581h4.545c.318 0 .576.26.576.58a.579.579 0 01-.576.581H9.546zm.985 1.986a.578.578 0 01-.576-.581c0-.32.257-.58.576-.58h2.727c.318 0 .576.26.576.58 0 .32-.258.58-.576.58h-2.727z" fill="#FFF"/></svg>
